icons/list.svg

<?xml version="1.0" standalone="no"?><!-- Generator: Gravit.io --><svg xmlns="http://www.w3.org/2000/svg" xmlns:xlink="http://www.w3.org/1999/xlink" width="96" height="96"><path d=" M 28 16 C 26.9 16 25.9 15.6 25.2 14.8 C 24.4 14.1 24 13.1 24 12 C 24 10.9 24.4 9.9 25.2 9.2 C 25.9 8.4 26.9 8 28 8 L 88 8 C 89.1 8 90.1 8.4 90.8 9.2 C 91.6 9.9 92 10.9 92 12 C 92 13.1 91.6 14.1 90.8 14.8 C 90.1 15.6 89.1 16 88 16 L 28 16 Z  M 28 64 C 26.9 64 25.9 63.6 25.2 62.8 C 24.4 62.1 24 61.1 24 60 C 24 58.9 24.4 57.9 25.2 57.2 C 25.9 56.4 26.9 56 28 56 L 88 56 C 89.1 56 90.1 56.4 90.8 57.2 C 91.6 57.9 92 58.9 92 60 C 92 61.1 91.6 62.1 90.8 62.8 C 90.1 63.6 89.1 64 88 64 L 28 64 Z  M 28 40 C 26.9 40 25.9 39.6 25.2 38.8 C 24.4 38.1 24 37.1 24 36 C 24 34.9 24.4 33.9 25.2 33.2 C 25.9 32.4 26.9 32 28 32 L 88 32 C 89.1 32 90.1 32.4 90.8 33.2 C 91.6 33.9 92 34.9 92 36 C 92 37.1 91.6 38.1 90.8 38.8 C 90.1 39.6 89.1 40 88 40 L 28 40 Z  M 28 88 C 26.9 88 25.9 87.6 25.2 86.8 C 24.4 86.1 24 85.1 24 84 C 24 82.9 24.4 81.9 25.2 81.2 C 25.9 80.4 26.9 80 28 80 L 88 80 C 89.1 80 90.1 80.4 90.8 81.2 C 91.6 81.9 92 82.9 92 84 C 92 85.1 91.6 86.1 90.8 86.8 C 90.1 87.6 89.1 88 88 88 L 28 88 Z  M 8 12 C 8 9.79233988198995 9.79233988198995 8 12 8 C 14.207660118010049 8 16 9.79233988198995 16 11.999999999999998 C 16 14.207660118010049 14.20766011801005 16 12.000000000000002 16 C 9.792339881989951 16 8 14.20766011801005 8 12 Z  M 8 36 C 8 33.79233988198995 9.79233988198995 32 12 32 C 14.207660118010049 32 16 33.792339881989946 16 36 C 16 38.20766011801005 14.20766011801005 40 12.000000000000002 40 C 9.792339881989951 40 8 38.207660118010054 8 36 Z  M 8 60 C 8 57.79233988198995 9.79233988198995 56 12 56 C 14.207660118010049 56 16 57.792339881989946 16 60 C 16 62.20766011801005 14.20766011801005 64 12.000000000000002 64 C 9.792339881989951 64 8 62.207660118010054 8 60 Z  M 8 84 C 8 81.79233988198995 9.79233988198995 80 12 80 C 14.207660118010049 80 16 81.79233988198995 16 84 C 16 86.20766011801005 14.20766011801005 88 12.000000000000002 88 C 9.792339881989951 88 8 86.20766011801005 8 84 Z " fill-rule="evenodd" fill="#454545" stroke-width="1" stroke="rgba(0,0,0,0)" stroke-linejoin="miter" stroke-linecap="square"/></svg>

<svg xmlns="http://www.w3.org/2000/svg" width="96" height="96"><path d="M28 16c-1.1 0-2.1-.4-2.8-1.2-.8-.7-1.2-1.7-1.2-2.8 0-1.1.4-2.1 1.2-2.8.7-.8 1.7-1.2 2.8-1.2h60c1.1 0 2.1.4 2.8 1.2.8.7 1.2 1.7 1.2 2.8 0 1.1-.4 2.1-1.2 2.8-.7.8-1.7 1.2-2.8 1.2H28zm0 48c-1.1 0-2.1-.4-2.8-1.2-.8-.7-1.2-1.7-1.2-2.8 0-1.1.4-2.1 1.2-2.8.7-.8 1.7-1.2 2.8-1.2h60c1.1 0 2.1.4 2.8 1.2.8.7 1.2 1.7 1.2 2.8 0 1.1-.4 2.1-1.2 2.8-.7.8-1.7 1.2-2.8 1.2H28zm0-24c-1.1 0-2.1-.4-2.8-1.2-.8-.7-1.2-1.7-1.2-2.8 0-1.1.4-2.1 1.2-2.8.7-.8 1.7-1.2 2.8-1.2h60c1.1 0 2.1.4 2.8 1.2.8.7 1.2 1.7 1.2 2.8 0 1.1-.4 2.1-1.2 2.8-.7.8-1.7 1.2-2.8 1.2H28zm0 48c-1.1 0-2.1-.4-2.8-1.2-.8-.7-1.2-1.7-1.2-2.8 0-1.1.4-2.1 1.2-2.8.7-.8 1.7-1.2 2.8-1.2h60c1.1 0 2.1.4 2.8 1.2.8.7 1.2 1.7 1.2 2.8 0 1.1-.4 2.1-1.2 2.8-.7.8-1.7 1.2-2.8 1.2H28zM8 12c0-2.208 1.792-4 4-4s4 1.792 4 4-1.792 4-4 4-4-1.792-4-4zm0 24c0-2.208 1.792-4 4-4s4 1.792 4 4-1.792 4-4 4-4-1.792-4-4zm0 24c0-2.208 1.792-4 4-4s4 1.792 4 4-1.792 4-4 4-4-1.792-4-4zm0 24c0-2.208 1.792-4 4-4s4 1.792 4 4-1.792 4-4 4-4-1.792-4-4z" fill-rule="evenodd" fill="#454545" stroke="rgba(0,0,0,0)" stroke-linecap="square"/></svg>
